X: 91
T:Turkey in the Straw
% Nottingham Music Database
S:Kevin Briggs, via EF
M:4/4
L:1/4
K:G
P:A
B/2A/2|"G"G/2F/2G/2A/2 GB,/2C/2|"G"D/2E/2D/2B,/2 DG/2A/2|\
"G"BB "Em"B/2A/2G/2A/2|"Am"BA "D7"AB/2A/2|
"G"G/2F/2G/2A/2 GB,/2C/2|"G"D/2E/2D/2B,/2 DG/2A/2|"G"B/2de/2 "Em"d/2B/2G/2A/2|\
"D7"BA "G"G:|
P:B
A|"G"B/2dB/2 dd|"G7"B/2dB/2 d2|"C"c/2ec/2 ee|"C"c/2ec/2 "D7"ef|
"G"gg dd|"G"B/2dB/2 "D7"AG/2A/2|"G"B/2de/2 "Em"d/2B/2G/2A/2|"D7"BA "G"G:|


